src/images/footer/telegram-icon.svg

<svg fill="none" height="20" viewBox="0 0 22 20" width="22" xmlns="http://www.w3.org/2000/svg" xmlns:xlink="http://www.w3.org/1999/xlink"><clipPath id="a"><path d="m0 0h22v20h-22z"/></clipPath><g clip-path="url(#a)"><path d="m.38577 9.57037 5.05791 1.95953 1.9717 6.5909c.08574.4453.6001.5344.943.2672l2.82902-2.4048c.2571-.2672.6858-.2672 1.0287 0l5.0579 3.8299c.3429.2672.8573.089.943-.3563l3.772-18.704051c.0857-.445335-.3429-.890665-.7716-.7125313l-20.83163 8.3722923c-.51436.17815-.51436.97972 0 1.15786zm6.77245.97973 9.94428-6.32373c.1715-.08908.3429.17812.1715.2672l-8.14408 7.92693c-.25718.2672-.51436.6235-.51436 1.0688l-.25718 2.1376c0 .2672-.42862.3563-.51436 0l-1.02872-3.9189c-.25718-.4453-.08572-.9797.34292-1.1579z" fill="#fff"/></g></svg>

<svg width="22" height="20" viewBox="0 0 22 20" fill="none" xmlns="http://www.w3.org/2000/svg">
<g id="543bc939-9a8d-4422-b 1" clip-path="url(#clip0_24_1657)">
<path id="Vector" d="M0.38577 9.57037L5.44368 11.5299L7.41538 18.1208C7.50112 18.5661 8.01548 18.6552 8.35838 18.388L11.1874 15.9832C11.4445 15.716 11.8732 15.716 12.2161 15.9832L17.274 19.8131C17.6169 20.0803 18.1313 19.9021 18.217 19.4568L21.989 0.752749C22.0747 0.307414 21.6461 -0.137916 21.2174 0.0402177L0.38577 8.41251C-0.12859 8.59066 -0.12859 9.39223 0.38577 9.57037ZM7.15822 10.5501L17.1025 4.22637C17.274 4.13729 17.4454 4.40449 17.274 4.49357L9.12992 12.4205C8.87274 12.6877 8.61556 13.044 8.61556 13.4893L8.35838 15.6269C8.35838 15.8941 7.92976 15.9832 7.84402 15.6269L6.8153 11.708C6.55812 11.2627 6.72958 10.7283 7.15822 10.5501Z" fill="white"/>
</g>
<defs>
<clipPath id="clip0_24_1657">
<rect width="22" height="20" fill="white"/>
</clipPath>
</defs>
</svg>
